assets/down-arrow.svg

<svg fill="none" height="62" viewBox="0 0 25 62" width="25" xmlns="http://www.w3.org/2000/svg"><path d="m14.6416 49.9316c2.2578-1.8925 5.5283-3.8681 9.8115-5.9267v3.5859c-4.9804 4.2168-8.666 8.6992-11.0566 13.4473h-1.793c-2.39061-4.7481-6.07616-9.2305-11.056625-13.4473v-3.5859c4.283205 2.0586 7.553715 4.0342 9.811525 5.9267v-49.256795h4.2832z" fill="#ff5e98"/></svg>

<svg width="25" height="62" viewBox="0 0 25 62" fill="none" xmlns="http://www.w3.org/2000/svg">
<path d="M14.6416 49.9316C16.8994 48.0391 20.1699 46.0635 24.4531 44.0049V47.5908C19.4727 51.8076 15.7871 56.29 13.3965 61.0381H11.6035C9.21289 56.29 5.52734 51.8076 0.546875 47.5908V44.0049C4.83008 46.0635 8.10059 48.0391 10.3584 49.9316V0.674805H14.6416V49.9316Z" fill="#FF5E98"/>
</svg>
